X:2877
T:Islay Rant
O:england
M:4/4
L:1/8
C:Charlie McKerron
S:Catriona Macdonald
R:Reel
D:Catriona Macdonald/Ian Lowthian Opus Blue
K:ADor
D|:EAAG ABcd|e2 ed eAAf|g2 gf gABA|GABG cABG|
DAAG ABcd|e2 ed eAAf|g2 gf gABA|GABG A2 A2:|
:a2 ab aged|eA A/2A/2A e2 f2|g2 gf gABA|GABG cABG|
^c2 cB c2 d2|e2 ed e2 f2|g2 gf gABA|GABG A2 A2:||


